libs/icons/src/svg/skipped.svg

<svg width="16" height="16" viewBox="0 0 16 16" fill="none" xmlns="http://www.w3.org/2000/svg">
<path fill-rule="evenodd" clip-rule="evenodd" d="M15.7436 0.154039C15.9054 0.291862 16 0.503326 16 0.727279V7.27273C16 7.67439 15.7015 8 15.3333 8C14.9651 8 14.6667 7.67439 14.6667 7.27273V1.65875L10.1617 2.88738C10.0387 2.92093 9.90946 2.91551 9.78918 2.87177L5.97335 1.4842L1.33333 2.74966V14.3412L5.83831 13.1126C5.96131 13.0791 6.09054 13.0845 6.21082 13.1282L8.21082 13.8555C8.56011 13.9825 8.74889 14.3944 8.63246 14.7754C8.51602 15.1565 8.13848 15.3624 7.78918 15.2354L5.97335 14.5751L0.828357 15.9783C0.629196 16.0326 0.418203 15.9838 0.256392 15.846C0.094581 15.7081 0 15.4967 0 15.2727V2.18182C0 1.8481 0.208198 1.5572 0.504976 1.47627L5.83831 0.0217211C5.96131 -0.0118253 6.09054 -0.00641146 6.21082 0.0373278L10.0266 1.4249L15.1716 0.0217211C15.3708 -0.0325954 15.5818 0.0162156 15.7436 0.154039ZM15.1381 10.3948C15.3984 10.6788 15.3984 11.1393 15.1381 11.4233L13.6095 13.0909L15.1381 14.7585C15.3984 15.0425 15.3984 15.503 15.1381 15.787C14.8777 16.071 14.4556 16.071 14.1953 15.787L12.6667 14.1194L11.1381 15.787C10.8777 16.071 10.4556 16.071 10.1953 15.787C9.93491 15.503 9.93491 15.0425 10.1953 14.7585L11.7239 13.0909L10.1953 11.4233C9.93491 11.1393 9.93491 10.6788 10.1953 10.3948C10.4556 10.1108 10.8777 10.1108 11.1381 10.3948L12.6667 12.0624L14.1953 10.3948C14.4556 10.1108 14.8777 10.1108 15.1381 10.3948Z" fill="#202327"/>
</svg>

<svg xmlns="http://www.w3.org/2000/svg" viewBox="0 0 16 16" class="sageicon"><path fill-rule="evenodd" d="M15.744.154c.161.138.256.35.256.573v6.546c0 .401-.299.727-.667.727-.368 0-.666-.326-.666-.727V1.659l-4.505 1.228a.614.614 0 0 1-.373-.015L5.973 1.484 1.333 2.75V14.34l4.505-1.228a.614.614 0 0 1 .373.015l2 .727c.35.127.538.54.421.92-.116.381-.494.587-.843.46l-1.816-.66-5.145 1.403a.624.624 0 0 1-.572-.132.753.753 0 0 1-.256-.573V2.182c0-.334.208-.625.505-.706L5.838.022a.614.614 0 0 1 .373.015l3.816 1.388L15.172.022c.199-.055.41-.006.572.132Zm-.606 10.24c.26.285.26.745 0 1.03L13.61 13.09l1.528 1.668c.26.284.26.744 0 1.028a.628.628 0 0 1-.943 0l-1.528-1.668-1.529 1.668a.628.628 0 0 1-.943 0 .775.775 0 0 1 0-1.029l1.529-1.667-1.529-1.668a.775.775 0 0 1 0-1.028.628.628 0 0 1 .943 0l1.529 1.667 1.528-1.667a.628.628 0 0 1 .943 0Z"/></svg>
